Adwaita++-Light/panel/22/copy-sync3.svg

<svg height="22" width="22" xmlns="http://www.w3.org/2000/svg">
  <g fill="#444">
    <path d="m19.635 2.0254-5.617 6.8184 1.982 1.1562 4-7.6484zm-14.635 4.4746-4 3.5 4.375-.625.9492 5.625h3.3867l-3.2109-8zm7 2.5293-3 .9707 1 3 4-3zm3 1.5707-5.1445 4.4h8.3435l-1.199-3zm-11.164 5.4c-.4633 0-.8359.373-.8359.836v1.3281c0 .463.3726.836.8359.836h5.164v-3h-5.164z"/>
    <path d="m3.8359 16c-.2317 0-.4406.093-.5918.244.1511-.151.3602-.244.5918-.244zm5.16405 0v3h9.16405c.463 0 .836-.375.836-.838v-1.3262c0-.463-.373-.836-.836-.836h-9.16395z" opacity=".4"/>
  </g>
</svg>

<svg xmlns="http://www.w3.org/2000/svg" width="22" height="22" x="0" y="0" version="1.1" xml:space="preserve">
 <defs>
  <style id="current-color-scheme" type="text/css">
   .ColorScheme-Text { color:#444444; } .ColorScheme-Highlight { color:#4285f4; }
  </style>
 </defs>
 <path style="fill:currentColor" class="ColorScheme-Text" d="M 19.635,2.0254 14.018,8.8438 16,10 20,2.3516 Z M 5,6.5 1,10 5.375,9.375 6.3242,15 9.7109,15 6.5,7 Z M 12,9.0293 9,10 l 1,3 4,-3 z M 15,10.6 9.8555,15 18.199,15 17,12 Z M 3.836,16 c -0.4633,0 -0.8359,0.373 -0.8359,0.836 l 0,1.3281 c 0,0.463 0.3726,0.836 0.8359,0.836 l 5.164,0 0,-3 -5.164,0 z"/>
 <path style="opacity:0.4;fill:currentColor" class="ColorScheme-Text" d="M 3.8359,16 C 3.6042,16 3.3953,16.093 3.2441,16.244 3.3952,16.093 3.6043,16 3.8359,16 Z m 5.16405,0 0,3 9.16405,0 C 18.627,19 19,18.625 19,18.162 l 0,-1.3262 c 0,-0.463 -0.373,-0.836 -0.836,-0.836 l -9.16395,0 z"/>
</svg>
